icons/carets-right.svg

<svg xmlns="http://www.w3.org/2000/svg" width="24" height="24" viewBox="0 0 24 24">
  <path d="M14,5.41421356 C14.2652165,5.41421356 14.5195704,5.5195704 14.7071068,5.70710678 L20.2928932,11.2928932 C20.6834175,11.6834175 20.6834175,12.3165825 20.2928932,12.7071068 L14.7071068,18.2928932 C14.3165825,18.6834175 13.6834175,18.6834175 13.2928932,18.2928932 C13.1053568,18.1053568 13,17.8510029 13,17.5857864 L13,6.41421356 C13,5.86192881 13.4477153,5.41421356 14,5.41421356 Z M4,5.41421356 C4.26521649,5.41421356 4.5195704,5.5195704 4.70710678,5.70710678 L10.2928932,11.2928932 C10.6834175,11.6834175 10.6834175,12.3165825 10.2928932,12.7071068 L4.70710678,18.2928932 C4.31658249,18.6834175 3.68341751,18.6834175 3.29289322,18.2928932 C3.10535684,18.1053568 3,17.8510029 3,17.5857864 L3,6.41421356 C3,5.86192881 3.44771525,5.41421356 4,5.41421356 Z"/>
</svg>

<svg xmlns="http://www.w3.org/2000/svg" viewBox="0 0 24 24">
  <path d="M14 5.41a1 1 0 0 1 .7.3l5.6 5.58a1 1 0 0 1 0 1.42l-5.6 5.58a1 1 0 0 1-1.7-.7V6.4a1 1 0 0 1 1-1zm-10 0a1 1 0 0 1 .7.3l5.6 5.58a1 1 0 0 1 0 1.42l-5.6 5.58a1 1 0 0 1-1.7-.7V6.4a1 1 0 0 1 1-1z"/>
</svg>
